svgs/light/rectangle-vertical-history.svg

<svg xmlns="http://www.w3.org/2000/svg" viewBox="0 0 576 512"><!--! Font Awesome Pro 6.6.0 by @fontawesome - https://fontawesome.com License - https://fontawesome.com/license (Commercial License) Copyright 2024 Fonticons, Inc. --><path d="M256 32c-17.7 0-32 14.3-32 32l0 384c0 17.7 14.3 32 32 32l256 0c17.7 0 32-14.3 32-32l0-384c0-17.7-14.3-32-32-32L256 32zM192 64c0-35.3 28.7-64 64-64L512 0c35.3 0 64 28.7 64 64l0 384c0 35.3-28.7 64-64 64l-256 0c-35.3 0-64-28.7-64-64l0-384zM96 64c0-8.8 7.2-16 16-16s16 7.2 16 16l0 384c0 8.8-7.2 16-16 16s-16-7.2-16-16L96 64zM0 112c0-8.8 7.2-16 16-16s16 7.2 16 16l0 288c0 8.8-7.2 16-16 16s-16-7.2-16-16L0 112z"/></svg>

<svg xmlns="http://www.w3.org/2000/svg" viewBox="0 0 576 512"><!--! Font Awesome Pro 6.4.2 by @fontawesome - https://fontawesome.com License - https://fontawesome.com/license (Commercial License) Copyright 2023 Fonticons, Inc. --><path d="M256 32c-17.7 0-32 14.3-32 32V448c0 17.7 14.3 32 32 32H512c17.7 0 32-14.3 32-32V64c0-17.7-14.3-32-32-32H256zM192 64c0-35.3 28.7-64 64-64H512c35.3 0 64 28.7 64 64V448c0 35.3-28.7 64-64 64H256c-35.3 0-64-28.7-64-64V64zM96 64c0-8.8 7.2-16 16-16s16 7.2 16 16V448c0 8.8-7.2 16-16 16s-16-7.2-16-16V64zM0 112c0-8.8 7.2-16 16-16s16 7.2 16 16V400c0 8.8-7.2 16-16 16s-16-7.2-16-16V112z"/></svg>
